X: 1
T: Aunt Mary's (Canadian) Jig
Z: John Chambers <jc:trillian.mit.edu>
M: 6/8
L: 1/8
K: D
A | "D"f2f fga | d3- dcB | ABA "B7"AGF | "Em"E3- E3 | "A7"e2e efg | e2d c2B | A2A ABA | "D"F3- F2 ||
A | "D"f2f fga | d3- dcB | ABA "B7"AGF | "Em"E3- E3 | "A7"e2e efg | e2d c2B | A2A ABc | "D"d3- d2 |]
A | "D"AFA faf | e2d d2B | AFA "B7"BcB | "Em"A2G G3 | "A7"GFG efe | d2c c2B | A2A ABA | "D"F3- F2 ||
A | "D"AFA faf | e2d d2B | AFA "B7"BcB | "Em"A2G G3 | "A7"GFG efe | d2c c2B | A2A ABc | "D"d3- d2 |]
